!!!!SEGMENT: pl-sa--185-a-v-15--006_luna-georgius--missa-in-f-agnus-dei.krn
!!!cenid: 17xx:531
!!!COM: Luna, Georgius
!!!COM-rismid: pe41010079
!!!CDT:
!!!CNT:
!!!OPR: Missa in F
!!!OTL: Agnus Dei
!!!OMV: 006
!!!PDT:
!!!AGN: Sacred; Mass
!!!SMS-siglum: PL-SA
!!!SMS-shelfmark: 185/A V 15
!!!SMS-shelfwork: 001-006 M
!!!SMS-variant:
!!!SMS-altvar:
!!!NIFC-rismid: 1001035901
!!!URL-scan: http://bc.bdsandomierz.pl/dlibra/publication/1522/edition/1490/content
!!!ONB-nifc: UWAGA: części Mszy: Kyrie, Gloria, Patrem, Sanctus, Benedictus, Agnus Dei
**kern	**fba	**kern	**dynam	**kern	**dynam	**kern	**text	**kern	**text	**kern	**text	**kern	**kern
*part8	*part7	*part7	*part7	*part6	*part6	*part5	*part5	*part4	*part4	*part3	*part3	*part2	*part1
*staff8	*	*staff7	*	*staff6	*	*staff5	*staff5	*staff4	*staff4	*staff3	*staff3	*staff2	*staff1
*Iorgan	*	*Ivioln	*	*Ivioln	*	*Iempty	*	*Ivox	*	*Ivox	*	*Icor	*Icor
*I"Organo.	*	*I"Violino Secondo.	*	*I"Violino Primo	*	*I"Baſso.	*	*I"Canto Secundo.	*	*I"Canto.	*	*I"Corno Secundo ex F	*I"Corno Primo ex F
*I'Org.	*	*I'Vn II	*	*I'Vn I	*	*I'B.	*	*I'C. II	*	*I'C.	*	*I'C. II in F	*I'C. I in F
*clefF4	*	*clefG2	*	*clefG2	*	*clefF4	*	*clefC1	*	*clefC1	*	*clefG2	*clefG2
*	*	*	*	*	*	*	*	*	*	*	*	*ITrd4c7	*ITrd4c7
*k[b-]	*	*k[b-]	*	*k[b-]	*	*k[b-]	*	*k[b-]	*	*k[b-]	*	*k[b-]	*k[b-]
*F:	*	*F:	*	*F:	*	*F:	*	*F:	*	*F:	*	*F:	*F:
*M4/4	*	*M4/4	*	*M4/4	*	*M4/4	*	*M4/4	*	*M4/4	*	*M4/4	*M4/4
*met(c)	*	*met(c)	*	*met(c)	*	*met(c)	*	*met(c)	*	*met(c)	*	*met(c)	*met(c)
=1	=1	=1	=1	=1	=1	=1	=1	=1	=1	=1	=1	=1	=1
!	!	!	!	!	!	!LO:TX:rj:a:t=Adagio	!	!LO:TX:rj:a:t=adagio	!	!LO:TX:rj:a:t=adagio	!	!LO:TX:rj:a:t=Adagio	!LO:TX:rj:a:t=Andan.
!LO:TX:rj:b:t=Agnus Dei	!	!LO:TX:rj:b:t=Agnus Dei	!	!LO:TX:rj:b:t=Agnus Dei	!	!	!	!	!	!	!	!LO:TX:rj:b:t=Agnus Dei	!LO:TX:rj:b:t=Agnus Dei
!LO:TX:arj::t=Andante	!	!LO:TX:rj:a:t=andante	!	!LO:TX:rj:a:t=andante	!	!	!	!	!	!	!	!	!
8r	.	8r	.	8r	.	00r	.	00r	.	4.ff\	A-	00r	00r
8F\L	.	8a/L	.	8cc\L	.	.	.	.	.	.	.	.	.
8F\	.	8a/	.	8cc\	.	.	.	.	.	.	.	.	.
8F\J	.	8a/J	.	8cc\J	.	.	.	.	.	8a\	-gnus	.	.
.	.	.	.	.	.	.	.	.	.	8qqcc/	.	.	.
8r	.	8r	.	8r	.	.	.	.	.	(16b-\LL	De-	.	.
.	.	.	.	.	.	.	.	.	.	16a\JJ)	.	.	.
8F\L	6_ 4_	8b-/L	.	8dd\L	.	.	.	.	.	8b-\	-i	.	.
8F\	.	8b-/	.	8dd\	.	.	.	.	.	8r	.	.	.
8F\J	x	8b-/J	.	8dd\J	.	.	.	.	.	8f/	qui	.	.
=2	=2	=2	=2	=2	=2	=2	=2	=2	=2	=2	=2	=2	=2
8r	.	8r	.	8r	.	.	.	.	.	4ff\	tol-	.	.
8F\L	6_ 4_	8b-/L	.	8dd\L	.	.	.	.	.	.	.	.	.
8F\	.	8b-/	.	8dd\	.	.	.	.	.	(16ff\LL	-lis	.	.
.	.	.	.	.	.	.	.	.	.	16dd\JJ)	.	.	.
8F\J	x	8b-/J	.	8dd\J	.	.	.	.	.	(16cc\LL	pec-	.	.
.	.	.	.	.	.	.	.	.	.	16b-\JJ)	.	.	.
8r	.	8r	.	8r	.	.	.	.	.	16.a\LL	-ca-	.	.
.	.	.	.	.	.	.	.	.	.	32b-\JJk	.	.	.
8F\L	5_ 3_	8a/L	.	8cc\L	.	.	.	.	.	8cc\	-ta	.	.
8F\	.	8a/	.	8cc\	.	.	.	.	.	8r	.	.	.
8F\J	x	8a/J	.	8cc\J	.	.	.	.	.	8f/	qui	.	.
=3	=3	=3	=3	=3	=3	=3	=3	=3	=3	=3	=3	=3	=3
8r	.	8r	.	8r	.	.	.	.	.	4ff\	tol-	.	.
8F\L	.	8a/L	.	8cc\L	.	.	.	.	.	.	.	.	.
8F\	.	8a/	.	8cc\	.	.	.	.	.	(16ff\LL	-lis	.	.
.	.	.	.	.	.	.	.	.	.	16cc\JJ)	.	.	.
8F\J	.	8a/J	.	8cc\J	.	.	.	.	.	(16b-\LL	pec-	.	.
.	.	.	.	.	.	.	.	.	.	16a\JJ)	.	.	.
8r	.	8r	.	8r	.	.	.	.	.	(16.g\LL	-ca-	.	.
.	.	.	.	.	.	.	.	.	.	32a\JJk)	.	.	.
8F\L	4_ 2_	8g/L	.	8b-\L	.	.	.	.	.	8b-\	-ta	.	.
!	!	!	!	!	!	!	!	!	!	!LO:LB:g=original	!	!	!
8F\	.	8g/	.	8b-\	.	.	.	.	.	8r	.	.	.
8F\J	x	8g/J	.	8b-\J	.	.	.	.	.	8b-\	pec-	.	.
=4	=4	=4	=4	=4	=4	=4	=4	=4	=4	=4	=4	=4	=4
8r	.	8r	.	8r	.	.	.	.	.	4gg\	-ca-	.	.
8E\L	6_	8g/L	.	8b-\L	.	.	.	.	.	.	.	.	.
*	*	*	*	*	*	*	*	*	*	*Xtuplet	*	*	*
!	!	!	!	!	!	!	!	!	!	!LO:SIC:o:s=:v:klamra łukowa	!	!	!
8E\	.	8g/	.	8b-\	.	.	.	.	.	24gg\LL	.	.	.
.	.	.	.	.	.	.	.	.	.	24ff\	.	.	.
.	.	.	.	.	.	.	.	.	.	24ee\JJ	.	.	.
!	!	!	!	!	!	!	!	!	!	!LO:SIC:o:s=:v:klamra łukowa	!	!	!
8E\J	x	8g/J	.	8b-\J	.	.	.	.	.	24dd\LL	.	.	.
.	.	.	.	.	.	.	.	.	.	24cc\	.	.	.
.	.	.	.	.	.	.	.	.	.	24b-\JJ	.	.	.
8r	.	8r	.	8r	.	.	.	.	.	(8.a\L	.	.	.
8F\L	3	8f/L	.	8dd\L	.	.	.	.	.	.	.	.	.
.	.	.	.	.	.	.	.	.	.	32b-\LL	.	.	.
.	.	.	.	.	.	.	.	.	.	32cc\JJJ)	.	.	.
.	.	.	.	.	.	.	.	.	.	8qqcc/	.	.	.
8E\	5	8f/	.	8b-\	.	.	.	.	.	8b-\	.	.	.
8F\J	3	8f/J	.	8a\J	.	.	.	.	.	8a\	-ta	.	.
=5	=5	=5	=5	=5	=5	=5	=5	=5	=5	=5	=5	=5	=5
.	.	.	.	.	.	.	.	.	.	8qqb-/	.	.	.
8r	.	8r	.	8r	.	00r	.	00r	.	8a\	mun-	00r	00r
8C/L	.	8e/L	.	8g/L	.	.	.	.	.	8g\	-di	.	.
8C/	.	8e/	.	8g/	.	.	.	.	.	4r	.	.	.
8C/J	.	8e/J	.	8g/J	.	.	.	.	.	.	.	.	.
!LO:LB:g=original	!	!	!	!	!	!	!	!	!	!	!	!	!
8r	.	8r	.	8r	.	.	.	.	.	4.cc\	mi-	.	.
8E\L	6	8g/L	.	8cc\L	.	.	.	.	.	.	.	.	.
8E\	6	8g/	.	8cc\	.	.	.	.	.	.	.	.	.
8E\J	.	8g/J	.	8cc\J	.	.	.	.	.	8ee\	-se-	.	.
!	!	!	!	!LO:LB:g=original	!	!	!	!	!	!	!	!	!
=6	=6	=6	=6	=6	=6	=6	=6	=6	=6	=6	=6	=6	=6
8r	.	8r	.	8r	.	.	.	.	.	(16ee\LL	-re-	.	.
.	.	.	.	.	.	.	.	.	.	16cc#X\JJ)	.	.	.
8F\L	6	8a/L	.	8dd\L	.	.	.	.	.	8dd\	-re	.	.
8F\	.	8a/	.	8dd\	.	.	.	.	.	8r	.	.	.
8F\J	.	8a/J	.	8dd\J	.	.	.	.	.	8r	.	.	.
!	!	!LO:LB:g=original	!	!	!	!	!	!	!	!	!	!	!
8r	.	8r	.	8r	.	.	.	.	.	4.dd\	mi-	.	.
8F\L	.	8a/L	.	8dd\L	.	.	.	.	.	.	.	.	.
8F\	.	8a/	.	8dd\	.	.	.	.	.	.	.	.	.
8F\J	.	8a/J	.	8dd\J	.	.	.	.	.	8ff\	-se-	.	.
!	!	!	!	!	!	!	!	!	!	!LO:LB:g=original	!	!	!
=7	=7	=7	=7	=7	=7	=7	=7	=7	=7	=7	=7	=7	=7
8r	.	8r	.	8r	.	.	.	.	.	(16ff\LL	-re-	.	.
.	.	.	.	.	.	.	.	.	.	16dd#X\JJ)	.	.	.
8G\L	6_ n3_	8bn\L	.	8ee\L	.	.	.	.	.	8ee\	-re	.	.
8G\	.	8b\	.	8ee\	.	.	.	.	.	4r	.	.	.
8G\J	x	8b\J	.	8ee\J	.	.	.	.	.	.	.	.	.
8r	.	8r	.	8r	.	.	.	.	.	4ff\	mi-	.	.
8A\	6	8cc\	.	8ff\	.	.	.	.	.	.	.	.	.
8r	.	8r	.	8r	.	.	.	.	.	4ff#X\	-se-	.	.
8A-X\	6\	8cc\	.	8ff#X\	.	.	.	.	.	.	.	.	.
=8	=8	=8	=8	=8	=8	=8	=8	=8	=8	=8	=8	=8	=8
8G\L	4	8bn\L	.	8.gg\L	.	.	.	.	.	8.gg\L	-re-	.	.
.	6	.	.	.	.	.	.	.	.	.	.	.	.
8E\	3	8cc\	.	.	.	.	.	.	.	.	.	.	.
.	.	.	.	(32ffn\LL	.	.	.	.	.	(32ff-X\LL	.	.	.
.	.	.	.	32gg\JJJ)	.	.	.	.	.	32gg\JJJ)	.	.	.
*	*	*	*	*Xtuplet	*	*	*	*	*	*	*	*	*
!	!	!	!	!LO:SIC:o:s=:v:klamra łukowa	!	!	!	!	!	!LO:SIC:o:s=:v:klamra łukowa	!	!	!
!	!	!	!	!	!	!	!	!	!	!LO:N:vis=24	!	!	!
8F\	3	8cc\	.	24aa\LL	.	.	.	.	.	12aa\L	.	.	.
.	.	.	.	24gg\	.	.	.	.	.	.	.	.	.
!	!	!	!	!	!	!	!	!	!	!LO:N:vis=24	!	!	!
.	.	.	.	24ff\JJ	.	.	.	.	.	12gg\	.	.	.
!	!	!	!	!LO:SIC:o:s=:v:klamra łukowa	!	!	!	!	!	!	!	!	!
8F#X\J	7	8cc\J	.	24ee\LL	.	.	.	.	.	.	.	.	.
!	!	!	!	!	!	!	!	!	!	!LO:N:vis=24	!	!	!
.	.	.	.	24dd\	.	.	.	.	.	12ff-\J	.	.	.
.	.	.	.	24cc\JJ	.	.	.	.	.	.	.	.	.
!LO:TX:a:t=P:mixed beam:problem	!	!	!	!	!	!	!	!	!	!	!	!	!
8G\L	6 4	4cc\	.	4g/	.	.	.	.	.	4g/	-re	.	.
8G\	.	.	.	.	.	.	.	.	.	.	.	.	.
.	.	.	.	.	.	.	.	.	.	8qqcc/	.	.	.
!	!	!LO:TX:a:t=t	!	!	!	!	!	!	!	!	!	!	!
8GG/	.	4bn\	.	4ddT\	.	.	.	.	.	4dd\	no-	.	.
8GG/J	.	.	.	.	.	.	.	.	.	.	.	.	.
=9	=9	=9	=9	=9	=9	=9	=9	=9	=9	=9	=9	=9	=9
!	!	!LO:TX:a:t=P:mixed beam:problem	!LO:DY:a:t=for	!LO:TX:a:t=P:mixed beam:problem	!	!	!	!	!	!	!	!	!
4C/	.	16cc/LL	f	16cc\LL	.	0r	.	0r	.	4cc\	-bis	0r	0r
.	.	16ee/	.	16gg\	.	.	.	.	.	.	.	.	.
.	.	16ee/	.	16gg\	.	.	.	.	.	.	.	.	.
.	.	16e/JJ	.	16g/JJ	.	.	.	.	.	.	.	.	.
!	!	!	!LO:DY:a	!	!	!	!	!	!	!	!	!	!
8r	.	16e/LL	p	16g/LL	.	.	.	.	.	4r	.	.	.
.	.	16f/	.	16a/	.	.	.	.	.	.	.	.	.
8C/	.	16f/	.	16a/	.	.	.	.	.	.	.	.	.
.	.	16g/JJ	.	16b-X/JJ	.	.	.	.	.	.	.	.	.
!	!	!LO:TX:a:t=P:mixed beam:problem	!LO:DY:a	!LO:TX:a:t=P:mixed beam:problem	!LO:DY:a	!	!	!	!	!	!	!	!
4C/	6 4	16f/LL	f	16a/LL	f	.	.	.	.	2r	.	.	.
.	.	16ff\	.	16aa\	.	.	.	.	.	.	.	.	.
.	.	16ff\	.	16aa\	.	.	.	.	.	.	.	.	.
.	.	16f/JJ	.	16a/JJ	.	.	.	.	.	.	.	.	.
!	!	!	!LO:DY:a	!	!LO:DY:a	!	!	!	!	!	!	!	!
8r	.	16f/LL	p	16a/LL	p	.	.	.	.	.	.	.	.
.	.	16d/	.	16bn/	.	.	.	.	.	.	.	.	.
8C/	.	16d/	.	16b/	.	.	.	.	.	.	.	.	.
.	.	16e/JJ	.	16cc/JJ	.	.	.	.	.	.	.	.	.
!	!	!	!	!LO:LB:g=original	!	!	!	!	!	!	!	!	!
=10	=10	=10	=10	=10	=10	=10	=10	=10	=10	=10	=10	=10	=10
!	!	!LO:TX:a:t=P:mixed beam:problem	!LO:DY:a	!	!	!	!	!	!	!	!	!	!
8G\L	4	8d/L	f	16bn\LL	.	.	.	.	.	1r	.	.	.
.	.	.	.	(16ff\	.	.	.	.	.	.	.	.	.
8G\	.	8bn\	.	16ff\	.	.	.	.	.	.	.	.	.
.	.	.	.	16ff\JJ)	.	.	.	.	.	.	.	.	.
8A\	6	8cc\	.	16ff\LL	.	.	.	.	.	.	.	.	.
.	.	.	.	(16ff#X\	.	.	.	.	.	.	.	.	.
8A-X\J	6\	8dd\J	.	16ff#\	.	.	.	.	.	.	.	.	.
.	.	.	.	16ff#\JJ)	.	.	.	.	.	.	.	.	.
8G\L	4	8b\	.	16ff#\LL	.	.	.	.	.	.	.	.	.
.	6	.	.	(16gg\	.	.	.	.	.	.	.	.	.
8E\	.	4cc\	.	16gg\	.	.	.	.	.	.	.	.	.
.	.	.	.	16gg#X\JJ)	.	.	.	.	.	.	.	.	.
8F\	3	.	.	32aa\KLL	.	.	.	.	.	.	.	.	.
.	.	.	.	(16.ffn\	.	.	.	.	.	.	.	.	.
8F\J	6	8dd\	.	32ee\K)	.	.	.	.	.	.	.	.	.
.	.	.	.	16.dd\JJ	.	.	.	.	.	.	.	.	.
!LO:LB:g=original	!	!	!	!	!	!	!	!	!	!	!	!	!
=11	=11	=11	=11	=11	=11	=11	=11	=11	=11	=11	=11	=11	=11
!LO:TX:a:t=P:mixed beam:problem	!	!	!	!	!	!	!	!	!	!	!	!	!
8G\L	6 4	(16ee\LL	.	8.cc\L	.	2r	.	2r	.	2r	.	2r	2r
.	.	16ee\	.	.	.	.	.	.	.	.	.	.	.
8G\	.	(16dd\)	.	.	.	.	.	.	.	.	.	.	.
.	.	16dd\JJ)	.	16a\Jk	.	.	.	.	.	.	.	.	.
!	!	!	!	!LO:TX:a:t=t	!	!	!	!	!	!	!	!	!
!	!	!LO:LB:g=original	!	!	!	!	!	!	!	!	!	!	!
8GG/	5 3	4bn\	.	4dd\	.	.	.	.	.	.	.	.	.
8GG/J	.	.	.	.	.	.	.	.	.	.	.	.	.
4C/	.	4cc\	.	4cc\	.	4r	.	4r	.	4r	.	4r	4r
8c\L	.	8g/L	.	8ee\L	.	8c\	A-	8g/	A-	8ee\	A-	8c/L	8g\L
8c\J	.	8g/J	.	8ee\J	.	8c\	-gnus	8g/	-gnus	8ee\	-gnus	8c/J	8g\J
=12	=12	=12	=12	=12	=12	=12	=12	=12	=12	=12	=12	=12	=12
*	*	*	*	*2\right	*	*	*	*	*	*2\right	*	*	*
4c\	4 2	4a/	.	2ff\	.	4c\	De-	2f/	De-	2dd\	De-	4f\	4a\
4Bn\	5	4g/	.	.	.	4Bn\	.	.	.	.	.	4g\	4g\
!	!	!LO:TX:a:t=P:mixed beam:problem	!	!LO:TX:a:t=P:mixed beam:problem	!	!	!	!	!	!	!	!	!
4c\	3	16g/LL	.	(16ee\LL	.	4c\	-i	4e/	-i	4cc\	-i	4c/	4g\
.	.	16ee\	.	16gg\	.	.	.	.	.	.	.	.	.
.	.	16ee\	.	16gg\)	.	.	.	.	.	.	.	.	.
.	.	16e/JJ	.	16g/JJ	.	.	.	.	.	.	.	.	.
8r	.	16e/LL	.	16g/LL	.	8r	.	8r	.	8r	.	8r	8r
.	.	16f/	.	(16a/	.	.	.	.	.	.	.	.	.
8C/	.	16f/	.	16a/	.	8C/	qui	8g/	qui	8cc\	qui	8c/	8g\
.	.	16g/JJ	.	16b-/JJ)	.	.	.	.	.	.	.	.	.
!	!	!	!	!	!	!	!	!	!	!LO:LB:g=original	!	!	!
=13	=13	=13	=13	=13	=13	=13	=13	=13	=13	=13	=13	=13	=13
!	!	!LO:TX:a:t=P:mixed beam:problem	!	!LO:TX:a:t=P:mixed beam:problem	!	!	!	!	!	!	!	!	!
4F\	.	16f/LL	.	16a/LL	.	4F\	tol-	4a\	tol-	4cc\	tol-	4f\	4a\
.	.	(16ff\	.	16aa\	.	.	.	.	.	.	.	.	.
.	.	16ff\)	.	16aa\	.	.	.	.	.	.	.	.	.
.	.	16f/JJ	.	16a/JJ	.	.	.	.	.	.	.	.	.
8F\L	.	16f/LL	.	(16a\LL	.	8F\	-lis	8a\	-lis	8cc\	-lis	8f\L	8a\L
.	.	(16g/	.	16bn\	.	.	.	.	.	.	.	.	.
8F\J	-5	16g/	.	16b\	.	8F\	pec-	8a\	pec-	8cc\	pec-	8f\J	8a\J
.	.	16a/JJ)	.	16cc\JJ)	.	.	.	.	.	.	.	.	.
4E\	.	16g/LL	.	16b-X\LL	.	4E\	-ca-	4g/	-ca-	4b-X\	-ca-	8g\L	4b-\
.	.	(16b-X/	.	(16gg\	.	.	.	.	.	.	.	.	.
.	.	16b-/	.	16gg\	.	.	.	.	.	.	.	8f\	.
.	3	16g/JJ)	.	16b-\JJ)	.	.	.	.	.	.	.	.	.
!	!	!	!	!LO:LB:g=original	!	!	!	!	!	!	!	!	!
4F\	.	16f/LL	.	16a\LL	.	4F\	-ta	4f/	-ta	4a\	-ta	8g\	4a\
.	.	(16a/	.	(16ff\	.	.	.	.	.	.	.	.	.
.	.	16a/	.	16ff\)	.	.	.	.	.	.	.	8f\J	.
.	.	16f/JJ)	.	16a\JJ	.	.	.	.	.	.	.	.	.
=14	=14	=14	=14	=14	=14	=14	=14	=14	=14	=14	=14	=14	=14
!	!	!LO:TX:a:t=t	!	!	!	!	!	!	!	!	!	!	!
4c\	6 4	4f/	.	4a/	.	4c\	mun-	4f/	mun-	4g/	mun-	4f\	4a\
4C/	5 3	4e/	.	4g/	.	4C/	-di	4e/	-di	4g/	-di	4c/	4gT\
8r	.	8r	.	8r	.	2r	.	2r	.	4ff\	Ag-	2r	2r
!	!	!	!LO:DY:a	!	!LO:DY:a	!	!	!	!	!	!	!	!
8F\L	5_ 3_	8a/L	p	8cc\L	p	.	.	.	.	.	.	.	.
!	!	!	!	!	!	!	!	!	!	!LO:SIC:o:s=:v:klamra łukowa	!	!	!
8F\	.	8a/	.	8cc\	.	.	.	.	.	24ff\LL	.	.	.
.	.	.	.	.	.	.	.	.	.	24ee\	.	.	.
.	.	.	.	.	.	.	.	.	.	24dd\JJ	.	.	.
!	!	!	!	!	!	!	!	!	!	!LO:SIC:o:s=:v:klamra łukowa	!	!	!
8F\J	x	8a/J	.	8cc\J	.	.	.	.	.	24cc\LL	-nus	.	.
.	.	.	.	.	.	.	.	.	.	24b-\	.	.	.
.	.	.	.	.	.	.	.	.	.	24a\JJ	.	.	.
=15	=15	=15	=15	=15	=15	=15	=15	=15	=15	=15	=15	=15	=15
.	.	.	.	.	.	.	.	.	.	8qqee/	.	.	.
8r	.	8r	.	8r	.	0r	.	00r	.	16dd\LL	De-	00r	00r
.	.	.	.	.	.	.	.	.	.	16cc\JJ	.	.	.
8F\L	6_ 4_	8b-\L	.	8dd\L	.	.	.	.	.	8dd\	-i	.	.
8F\	.	8b-\	.	8dd\	.	.	.	.	.	8r	.	.	.
8F\J	.	8b-\J	.	8dd\J	.	.	.	.	.	8f/	qui	.	.
8r	x	8r	.	8r	.	.	.	.	.	4ff\	tol-	.	.
8F\L	6_ 4_	8b-\L	.	8dd\L	.	.	.	.	.	.	.	.	.
8F\	.	8b-\	.	8dd\	.	.	.	.	.	(16ff\LL	-lis	.	.
.	.	.	.	.	.	.	.	.	.	16dd\JJ)	.	.	.
8F\J	x	8b-\J	.	8dd\J	.	.	.	.	.	(16cc\LL	pec-	.	.
.	.	.	.	.	.	.	.	.	.	16b-\JJ)	.	.	.
=16	=16	=16	=16	=16	=16	=16	=16	=16	=16	=16	=16	=16	=16
.	.	.	.	.	.	.	.	.	.	8qqb-/	.	.	.
8r	.	8r	.	8r	.	.	.	.	.	16.a\LL	-ca-	.	.
.	.	.	.	.	.	.	.	.	.	32b-\JJk	.	.	.
!	!	!	!	!	!	!	!	!	!	!LO:LB:g=original	!	!	!
8F\L	3	8a/L	.	8cc\L	.	.	.	.	.	8cc\	-ta	.	.
8F\	.	8a/	.	8cc\	.	.	.	.	.	8r	.	.	.
8F\J	.	8a/J	.	8cc\J	.	.	.	.	.	8f/	qui	.	.
!	!	!LO:LB:g=original	!	!	!	!	!	!	!	!	!	!	!
8r	.	8r	.	8r	.	.	.	.	.	4ff\	tol-	.	.
8F\L	.	8a/L	.	8cc\L	.	.	.	.	.	.	.	.	.
8F\	.	8a/	.	8cc\	.	.	.	.	.	(16ff\LL	-lis	.	.
.	.	.	.	.	.	.	.	.	.	16cc\JJ)	.	.	.
8F\J	.	8a/J	.	8cc\J	.	.	.	.	.	(16b-\LL	pec-	.	.
.	.	.	.	.	.	.	.	.	.	16a\JJ)	.	.	.
!LO:LB:g=original	!	!	!	!	!	!	!	!	!	!	!	!	!
=17	=17	=17	=17	=17	=17	=17	=17	=17	=17	=17	=17	=17	=17
8r	.	8r	.	8r	.	1r	.	.	.	16.g\LL	-ca-	.	.
.	.	.	.	.	.	.	.	.	.	32a\JJk	.	.	.
8F\L	4_ 2_	8g/L	.	8b-\L	.	.	.	.	.	8b-\	-ta	.	.
8F\	.	8g/	.	8b-\	.	.	.	.	.	8r	.	.	.
8F\J	x	8g/J	.	8b-\J	.	.	.	.	.	8dd\	pec-	.	.
8r	.	8r	.	8r	.	.	.	.	.	4gg\	-ca-	.	.
8E\L	5_	8g/L	.	8b-\L	.	.	.	.	.	.	.	.	.
!	!	!	!	!	!	!	!	!	!	!LO:SIC:o:s=:v:klamra łukowa	!	!	!
8E\	.	8g/	.	8b-\	.	.	.	.	.	24gg\LL	.	.	.
.	.	.	.	.	.	.	.	.	.	24ff\	.	.	.
.	.	.	.	.	.	.	.	.	.	24ee\JJ	.	.	.
!	!	!	!	!	!	!	!	!	!	!LO:SIC:o:s=:v:klamra łukowa	!	!	!
8E\J	x	8g/J	.	8b-\J	.	.	.	.	.	24dd\LL	.	.	.
.	.	.	.	.	.	.	.	.	.	24cc\	.	.	.
.	.	.	.	.	.	.	.	.	.	24b-\JJ	.	.	.
!	!	!	!	!	!	!LO:LB:g=original	!	!	!	!	!	!	!
=18	=18	=18	=18	=18	=18	=18	=18	=18	=18	=18	=18	=18	=18
8r	.	8.f/L	.	(8.a/L	.	2r	.	.	.	(8.a\L	.	.	.
8F\L	3	.	.	.	.	.	.	.	.	.	.	.	.
.	.	32g/LL	.	32b-/LL	.	.	.	.	.	32b-\LL	.	.	.
.	.	32a/JJJ	.	32cc/JJJ)	.	.	.	.	.	32cc\JJJ)	.	.	.
8E\	6 5	8g/L	.	8b-/L	.	.	.	.	.	8b-\	.	.	.
8F\J	.	8f/J	.	8a/J	.	.	.	.	.	8a\	-ta	.	.
!LO:TX:a:t=P:mixed beam:problem	!	!	!	!	!	!	!	!	!	!	!	!	!
.	.	.	.	.	.	.	.	.	.	8qqb-/	.	.	.
8c\L	6 4	8f/L	.	8a/L	.	4r	.	.	.	8a\	mun-	.	.
8C/	5 3	8e/J	.	8g/J	.	.	.	.	.	8g\	-di	.	.
8c\	.	4r	.	4r	.	8c\	mi-	.	.	4r	.	.	.
8c\J	.	.	.	.	.	8c\	-se-	.	.	.	.	.	.
!	!	!	!	!	!	!	!	!	!	!LO:LB:g=original	!	!	!
=19	=19	=19	=19	=19	=19	=19	=19	=19	=19	=19	=19	=19	=19
*2\right	*	*	*	*	*	*2\right	*	*	*	*	*	*	*
2F#X\	7 -5	16r	f	16r	.	2F#X\	-re-	4r	.	4r	.	4r	4r
.	.	(16ee-X\LL	.	16aa\LL	.	.	.	.	.	.	.	.	.
.	.	16ee-\	.	(16aa\	.	.	.	.	.	.	.	.	.
.	.	16dd\JJ)	.	16ee-X\JJ)	.	.	.	.	.	.	.	.	.
!	!	!	!	!LO:LB:g=original	!	!	!	!	!	!	!	!	!
.	6 4	(16cc\LL	.	16ee-\LL	.	.	.	(16cc\LL	mi-	(16ee-X\LL	mi-	4a\	4cc\
.	.	16b-\	.	(16dd\	.	.	.	16b-\JJ)	.	16dd\JJ)	.	.	.
.	.	16b-\)	.	16dd\)	.	.	.	(16b-\LL	-se-	(16dd\LL	-se-	.	.
.	.	16a\JJ	.	16cc\JJ	.	.	.	16a\JJ)	.	16cc\JJ)	.	.	.
!	!	!	!	!	!	!	!	!LO:LB:g=original	!	!	!	!	!
4G\	5 3	16b-\LL	.	16b-\LL	.	4G\	-re	(16g/LL	-re-	(16b-\LL	-re-	4g\	4b-\
.	.	(16dd\	.	16bb-\	.	.	.	16f#X/JJ)	.	16a\JJ)	.	.	.
.	.	16dd\	.	16bb-\	.	.	.	8g/	-re	8b-\	-re	.	.
.	.	16b-\JJ)	.	16dd\JJ	.	.	.	.	.	.	.	.	.
4r	.	16b-\LL	.	16dd\LL	.	4r	.	4r	.	4r	.	4r	4r
.	.	(16a\	.	(16cc\	.	.	.	.	.	.	.	.	.
.	.	16a\	.	16cc\)	.	.	.	.	.	.	.	.	.
.	.	16g\JJ)	.	16b-\JJ	.	.	.	.	.	.	.	.	.
=20	=20	=20	=20	=20	=20	=20	=20	=20	=20	=20	=20	=20	=20
*	*	*	*	*	*	*	*	*	*	*	*	*2\right	*2\right
8E\L	7_ 5_	16r	.	16r	.	2E\	no-	2g/	no-	2b-T\	no-	2gT\	2b-T\
.	.	16b-\LL	.	16gg\LL	.	.	.	.	.	.	.	.	.
8E\	.	16b-\	.	(16gg\	.	.	.	.	.	.	.	.	.
.	.	16b-\JJ	.	16dd\JJ)	.	.	.	.	.	.	.	.	.
8E\	6 4	16b-/LL	.	16dd\LL	.	.	.	.	.	.	.	.	.
.	.	(16a/	.	(16cc\	.	.	.	.	.	.	.	.	.
8E\J	5 3	16a/)	.	16cc\)	.	.	.	.	.	.	.	.	.
.	.	16g/JJ	.	16b-\JJ	.	.	.	.	.	.	.	.	.
!	!	!LO:TX:a:t=P:mixed beam:problem	!	!	!	!	!	!	!	!	!	!	!
4Fn\	.	16f/LL	.	16a\LL	.	4F\	-bis	4fn/	-bis	4a\	-bis	4f\	4a\
.	.	(16ff\	.	(16aa\	.	.	.	.	.	.	.	.	.
.	.	16ff\)	.	16aa\)	.	.	.	.	.	.	.	.	.
.	.	16a/JJ	.	16cc\JJ	.	.	.	.	.	.	.	.	.
4r	.	16a/LL	.	16cc\LL	.	4r	.	4r	.	4r	.	4r	4r
.	.	(16g/	.	(16b-\	.	.	.	.	.	.	.	.	.
.	.	16g/	.	16b-\)	.	.	.	.	.	.	.	.	.
.	.	16f/JJ)	.	16a\JJ	.	.	.	.	.	.	.	.	.
!	!	!LO:LB:g=original	!	!	!	!	!	!	!	!	!	!LO:LB:g=original	!LO:LB:g=original
=21	=21	=21	=21	=21	=21	=21	=21	=21	=21	=21	=21	=21	=21
1C/	5 3	16r	.	16r	.	1r	.	4e/	mi-	4g\	mi-	1r	1r
.	.	16g/LL	.	(16ee\LL	.	.	.	.	.	.	.	.	.
.	.	16g/	.	16ee\	.	.	.	.	.	.	.	.	.
.	.	16b-/JJ	.	16gg\JJ)	.	.	.	.	.	.	.	.	.
.	6 4	(16b-\LL	.	16gg\LL	.	.	.	4f/	-se-	4a\	-se-	.	.
.	.	16a\	.	16ff\	.	.	.	.	.	.	.	.	.
.	.	16cc\	.	16aa\	.	.	.	.	.	.	.	.	.
.	.	16a\JJ)	.	16ff\JJ	.	.	.	.	.	.	.	.	.
.	7 #	(16g/LL	.	16ee\LL	.	.	.	4g/	-re-	4b-\	-re-	.	.
.	.	16e/	.	(16g\	.	.	.	.	.	.	.	.	.
.	.	16e/)	.	16g\	.	.	.	.	.	.	.	.	.
.	.	16g/JJ	.	16b-\JJ)	.	.	.	.	.	.	.	.	.
.	6 4	16g/LL	.	16b-\LL	.	.	.	4f/	-re	4a\	-re	.	.
.	.	(16f/	.	(16a\	.	.	.	.	.	.	.	.	.
.	.	16a/	.	16cc\)	.	.	.	.	.	.	.	.	.
.	.	16f/JJ)	.	16a\JJ	.	.	.	.	.	.	.	.	.
=22	=22	=22	=22	=22	=22	=22	=22	=22	=22	=22	=22	=22	=22
1C/	5 #	16e/LL	.	16g\LL	.	4C/	mi-	4e/	mi-	4g\	mi-	4c/	4g\
.	.	(16g/	.	16ee\	.	.	.	.	.	.	.	.	.
.	.	16g/	.	16ee\	.	.	.	.	.	.	.	.	.
.	.	16b-/JJ)	.	16gg\JJ	.	.	.	.	.	.	.	.	.
.	6 4	(16cc/LL	.	16gg\LL	.	4C/	-se-	4f/	-se-	4a\	-se-	4f\	4a\
.	.	16a/	.	(16ff\	.	.	.	.	.	.	.	.	.
.	.	16cc/)	.	16aa\	.	.	.	.	.	.	.	.	.
.	.	16a/JJ	.	16ff\JJ)	.	.	.	.	.	.	.	.	.
!	!	!	!	!LO:LB:g=original	!	!	!	!	!	!	!	!	!
.	7 5	16g/LL	.	16ee\LL	.	4C/	-re-	4g/	-re-	4b-\	-re-	4g\	4b-\
.	.	(16e/	.	(16g\	.	.	.	.	.	.	.	.	.
.	.	16e/	.	16g\	.	.	.	.	.	.	.	.	.
.	.	16g/JJ)	.	16b-\JJ)	.	.	.	.	.	.	.	.	.
.	6 4	16g/LL	.	(16b-\LL	.	4C/	-re	4f/	-re	4a\	-re	4f\	4a\
.	.	(16f/	.	16a\	.	.	.	.	.	.	.	.	.
.	.	16a/	.	16cc\)	.	.	.	.	.	.	.	.	.
.	.	16f/JJ)	.	16a\JJ	.	.	.	.	.	.	.	.	.
=23	=23	=23	=23	=23	=23	=23	=23	=23	=23	=23	=23	=23	=23
!	!	!LO:TX:a:t=P:mixed beam:problem	!	!	!LO:DY:a	!	!	!	!	!	!	!	!
4C/	.	8e/L	.	(16g\LL	f	8C/	mi-	8g/	mi-	8ee\	mi-	8c/L	8g\L
.	.	.	.	16ee\	.	.	.	.	.	.	.	.	.
.	.	(16ee\L	.	16gg\)	.	8C/	-se-	8g/	-se-	8ee\	-se-	8c/	8g\
.	.	16gg\JJ)	.	16bb-\JJ	.	.	.	.	.	.	.	.	.
8BB-/L	.	8cc/L	.	16gg\LL	.	8BB-/	-re-	8g/	-re-	8ee\	-re-	8c/	8g\
.	.	.	.	(16ee\	.	.	.	.	.	.	.	.	.
16AA/L	4 2	(16f/L	.	16ff\	.	(16AA/LL	-re	8g/	-re	8ff\	-re	8f/J	8a\J
16BB-/JJ	6	16g/JJ)	.	16b-\JJ)	.	16BB-/JJ)	.	.	.	.	.	.	.
!LO:LB:g=original	!	!	!	!	!	!	!	!	!	!	!	!	!
8C/L	6 4	4f/	.	4a/	.	2C/	no-	(16a\LL	no-	(4ff\	no-	4f\	4a\
.	.	.	.	.	.	.	.	16b-\JJ)	.	.	.	.	.
8C/	5 3	.	.	.	.	.	.	4a\	.	.	.	.	.
8CC/	5 3	4et/	.	4g/	.	.	.	.	.	4ee\)	.	4c/	4gT\
8CC/J	.	.	.	.	.	.	.	8g\	.	.	.	.	.
!	!	!	!	!	!	!	!	!	!	!LO:LB:g=original	!	!	!
=24	=24	=24	=24	=24	=24	=24	=24	=24	=24	=24	=24	=24	=24
4FF/	.	4f/	.	4f/	.	4FF/	-bis	4a\	-bis	4ff\	-bis	4A/	4f\
4r	.	4r	.	8ff\L	.	4r	.	4r	.	8ff\	mi-	4r	4r
.	.	.	.	8ff\J	.	.	.	.	.	8ff\	-se-	.	.
4r	.	4r	.	2ff\	.	4r	.	4r	.	4ff\	-re-	4r	4r
!	!	!	!	!	!	!LO:LB:g=original	!	!LO:LB:g=original	!	!	!	!	!
8BBn/L	-7	8a-X/L	.	.	.	8BBn/	mi-	8a-X\	mi-	4ff\	-re	8f\L	8f\L
8BB/J	.	8a-/J	.	.	.	8BB/	-se-	8a-\	-se-	.	.	8f\J	8f\J
=25	=25	=25	=25	=25	=25	=25	=25	=25	=25	=25	=25	=25	=25
4C/	.	4g/	.	4ee\	.	4C/	-re-	4g/	-re-	4ee\	no-	4c/	4c/
4BBn/	-7	4a-X/	.	2ff\	.	4BBn/	-re	4a-X\	-re	2ff\	-bis	4F/	4F/
4C/	4	2g/	.	.	.	2C/	no-	2g/	no-	.	.	2C/	2c/
.	3	.	.	.	.	.	.	.	.	.	.	.	.
4CC/	.	.	.	4eet\	.	.	.	.	.	4ee\	no-	.	.
!	!	!LO:LB:g=original	!	!	!	!	!	!	!	!	!	!	!
=26	=26	=26	=26	=26	=26	=26	=26	=26	=26	=26	=26	=26	=26
*	*	*	*	*	*	*	*	*2\right	*	*	*	*	*
2FF/	.	2an/	.	2ff\	.	2FF/	-bis	2an\	-bis	2ff\	-bis	2F/	2F/
2r	.	2r	.	2r	.	2r	.	2r	.	2r	.	2r	2r
!LO:TX:b:t=Dona nobis ut Kyrie Allo 3/8	!	!LO:TX:b:t=Dona nobis ut Kyrie allo 3/8	!	!LO:TX:b:t=Dona nobis ut Kyrie \n allo 3/8	!	!LO:TX:b:t=Dona nobis ut Kyrie Allo 3/8	!	!LO:TX:b:t=Dona nobis ut Kyrie allo 3/8	!	!LO:TX:b:t=Dona nobis ut Kyrie Allo 3/8	!	!LO:TX:b:t=Dona nobis ut Ky\nrie allo 3/8	!LO:TX:b:t=Dona nobis ut \nKyrie allo 3/8
==	==	==	==	==	==	==	==	==	==	==	==	==	==
*-	*-	*-	*-	*-	*-	*-	*-	*-	*-	*-	*-	*-	*-
!!!system-decoration: [(s1,s2)][(s3,s4,s5)][(s6,s7)]s8
!!!EED: Leszek Kubiak
!!!EST: 2020-10-12
!!!AIN: 2 cor 1 empty 1 organ 2 violn 2 vox
!!!ENC: Berenika Jozajtis
!!!END: 2020-05-19
